images/svg/vk.svg

<svg width="20" height="12" viewBox="0 0 20 12" fill="none" xmlns="http://www.w3.org/2000/svg">
<path d="M19.8217 10.1784C19.768 10.0884 19.4355 9.3658 17.8353 7.88069C16.1602 6.32558 16.3852 6.5781 18.4029 3.88915C19.6317 2.25152 20.123 1.25145 19.9692 0.823917C19.823 0.416387 18.9192 0.523895 18.9192 0.523895L15.9139 0.541396C15.9139 0.541396 15.6914 0.511394 15.5252 0.610151C15.3639 0.707659 15.2602 0.932675 15.2602 0.932675C15.2602 0.932675 14.7839 2.20027 14.1488 3.27785C12.81 5.55177 12.2737 5.67178 12.0549 5.53052C11.5461 5.20174 11.6736 4.20792 11.6736 3.50287C11.6736 1.29895 12.0074 0.380134 11.0223 0.142616C10.6948 0.0638606 10.4548 0.0113567 9.61849 0.00260608C8.54591 -0.00864475 7.63709 0.00635636 7.1233 0.257625C6.78078 0.425138 6.51701 0.798916 6.67827 0.820167C6.87703 0.846419 7.32707 0.941426 7.56584 1.26645C7.87461 1.68523 7.86336 2.6278 7.86336 2.6278C7.86336 2.6278 8.04087 5.22175 7.44958 5.54427C7.0433 5.76554 6.48701 5.31425 5.29317 3.25035C4.68187 2.19402 4.21934 1.02518 4.21934 1.02518C4.21934 1.02518 4.13058 0.807666 3.97182 0.691408C3.77931 0.550147 3.50929 0.505144 3.50929 0.505144L0.651577 0.522645C0.651577 0.522645 0.222795 0.535146 0.0652839 0.72141C-0.0747264 0.887672 0.054033 1.2302 0.054033 1.2302C0.054033 1.2302 2.2917 6.46434 4.82438 9.10328C7.1483 11.5222 9.786 11.3635 9.786 11.3635H10.9811C10.9811 11.3635 11.3424 11.3235 11.5261 11.1247C11.6961 10.9422 11.6899 10.5996 11.6899 10.5996C11.6899 10.5996 11.6661 8.99578 12.4112 8.75951C13.145 8.52699 14.0876 10.3096 15.0864 10.9959C15.8414 11.5147 16.4152 11.401 16.4152 11.401L19.0867 11.3635C19.0867 11.3635 20.4843 11.2772 19.8217 10.1784Z" fill="white"/>
</svg>

<svg width="20" height="12" fill="none" xmlns="http://www.w3.org/2000/svg"><path d="M19.822 10.178c-.054-.09-.386-.812-1.987-2.297-1.675-1.555-1.45-1.303.568-3.992 1.229-1.637 1.72-2.638 1.566-3.065-.146-.408-1.05-.3-1.05-.3L15.914.54s-.223-.03-.389.07c-.161.097-.265.322-.265.322s-.476 1.268-1.11 2.346c-1.339 2.274-1.875 2.394-2.094 2.253-.509-.33-.381-1.323-.381-2.028 0-2.204.333-3.123-.652-3.36-.327-.08-.567-.132-1.404-.14-1.072-.012-1.98.003-2.495.255-.342.167-.606.54-.445.562.199.026.65.121.888.446.309.42.297 1.362.297 1.362s.178 2.594-.413 2.916c-.407.222-.963-.23-2.157-2.294C4.682 2.194 4.22 1.025 4.22 1.025S4.131.808 3.972.691a1.273 1.273 0 00-.463-.186L.652.523S.222.535.065.72c-.14.167-.011.51-.011.51s2.238 5.233 4.77 7.872c2.324 2.42 4.962 2.26 4.962 2.26h1.195s.361-.04.545-.238c.17-.183.164-.525.164-.525s-.024-1.604.721-1.84c.734-.233 1.677 1.55 2.675 2.236.755.519 1.33.405 1.33.405l2.67-.037s1.398-.087.736-1.186z" fill="#fff"/></svg>
